!!!!SEGMENT: pl-sa--562-a-ix-42--002_winter-peter-von--polonoisse-z-przerwany-ofiary.krn
!!!cenid: 18xx:363
!!!COM: Winter, Peter von
!!!COM-rism: pe141907
!!!CDT: 1754/08/28-1825/10/17
!!!CNT: German
!!!OTL: Polonoiſse z Przerwany Ofiary
!!!PDT:
!!!AGN: Secular; Polonaise
!!!SMS-siglum: PL-SA
!!!SMS-shelfmark: 562/A IX 42
!!!NIFC-rismID: 1001070625
!!!URL-scan: http://bc.bdsandomierz.pl/dlibra/publication/1318/edition/1286/content
!!!ONB-nifc: UWAGA: źródło zawiera dwa osobne utwory: Polonoisse Capriccio i Polonoisse z Przerwany Ofiary
!!!SMS-variant:
!!!SMS-altvar:
**kern	**kern	**dynam
*part1	*part1	*part1
*staff2	*staff1	*
*I"Piano	*	*
*I'P-no	*	*
*clefF4	*clefG2	*
*k[b-e-]	*k[b-e-]	*
*M3/4	*M3/4	*
!	!LO:TX:a:t=Polonoiſse z Przerwany Ofiary	!
8r	8f'/	.
=1	=1	=1
8B-\L	(8f/L	.
8f\	8b-/)	.
8d\	8b-/	.
8f\J	8b-/J	.
.	8qdd/	.
8A\L	(8cc\L	.
8f\J	16bn\L	.
.	16cc\JJ)	.
=2	=2	=2
8B-\L	(16dd\LL	.
.	16cc\	.
8f\	16ee-\	.
.	16dd\JJ)	.
8A\	(4.cc\	.
8f\	.	.
8B-\	.	.
8f\J	8dd\)	.
=3	=3	=3
8E-\L	8ee-\	.
8c\	4ee-\	.
8G\	.	.
8c\	8dd\L	.
8E-\	8cc\	.
8c\J	8b-\J	.
=4	=4	=4
(4B-\ (4F\	8.ddt\L	.
.	(32cc\LL	.
.	32dd\JJJ)	.
8A\ 8F\))	(16cc\LL	.
.	16ff\	.
8r	16gg\	.
.	16ff\JJ	.
4r	16een\LL	.
.	16ee-X\	.
.	16dd'\	.
.	16cc'\JJ)	.
=5	=5	=5
!	!	!LO:DY:a
16BB-\LL	8b-\	f
16F\	.	.
16D\	4b-\	.
16F\JJ	.	.
16D\LL	.	.
16B-\	.	.
16F\	16a\LL	.
16B-\JJ	16b-\JJ	.
16F\LL	8cc\L	.
16c\	.	.
16A\	8ccS\J	.
16c\JJ	.	.
=6	=6	=6
!!linebreak:original
16B-\LL	16dd\LL	.
16f\	16cc\	.
16d\	16ee-\	.
16f\JJ	16dd\JJ	.
16A\LL	8cc\L	.
16f\	.	.
16c\	8cc\J	.
16f\JJ	.	.
16A\LL	16cc\LL	.
16f\	16ee-\	.
16B-\	16dd\	.
16f\JJ	16ff\JJ	.
!!LO:LB:g=original
=7	=7	=7
8f\L 8c\	16ee-\LL	.
.	16aa\	.
8f\ 8c\	16ccc\	.
.	16aa\JJ	.
8f\ 8c\ 8A\	16eee-\LL	.
.	16ccc\	.
8f\ 8c\ 8A\	16aa\	.
.	16ee-\JJ	.
8f\ 8d\ 8B-\	16dd\LL	.
.	16bb-\	.
8f\J 8d\ 8B-\	16ff\	.
.	16dd\JJ	.
=8	=8	=8
8c\L 8G\ 8E-\	16cc\LL	.
.	16gg\	.
8c\ 8G\ 8E-\	16ee-\	.
.	16cc\JJ	.
8e-\ 8c\ 8F\	16a\LL	.
.	16cc\	.
8e-\J 8c\ 8F\	16ff\	.
.	16aa\JJ	.
8d\ 8B-\	8b-\	.
=9||	=9||	=9||
8r	8dd\	.
16F\LL	(8dd\L	.
16c\	.	.
16A\	8cc\J)	.
16c\JJ	.	.
*rep	*	*
16F\LL	8cc'\L	.
16c\	.	.
16A\	8cc'\J	.
16c\JJ	.	.
*Xrep	*	*
16En\LL	16dd\LL	.
16c\	16b-\	.
16G\	16g\	.
16c\JJ	16b-\JJ	.
=10	=10	=10
16F\LL	(8b-\L	.
16c\	.	.
16A\	8a\J)	.
16c\JJ	.	.
*rep	*	*
16F\LL	16a\LL	.
16c\	16ff\	.
16A\	16een\	.
16c\JJ	16ff\JJ	.
*Xrep	*	*
16F\LL	16gg\LL	.
16d\	16ff\	.
16B-\	16ee\	.
16d\JJ	16dd\JJ	.
=11	=11	=11
16F\LL	(8dd\L	.
16c\	.	.
16A\	8cc\)	.
16c\JJ	.	.
*rep	*	*
16F\LL	8cc'\	.
16c\	.	.
16A\	8cc'\J	.
16c\JJ	.	.
*Xrep	*	*
16En\LL	16dd\LL	.
16c\	16b-\	.
16G\	16g\	.
16c\JJ	16b-\JJ	.
=12	=12	=12
!!linebreak:original
!	!LO:TX:a:t=P:mixed beam:problem	!
16F\LL	8a/L	.
16c\	.	.
16A\	8aa\	.
16c\JJ	.	.
*rep	*	*
16F\LL	8aa\	.
16c\	.	.
16A\	8aa\J	.
16c\JJ	.	.
*Xrep	*	*
16E-\LL	8.aa\L	.
16c#X\	.	.
16G\	.	.
*	*Xtuplet	*
!	!LO:TUP:a:problem:klamra łukowa	!
16c#\JJ	48bb-\LL	.
.	48aa\	.
.	48gg\JJJ	.
!!LO:LB:g=original
=13	=13	=13
8d\L 8D\	8.ff\L	.
8c\J 8C\	.	.
!	!LO:TUP:a:problem:klamra łukowa	!
.	48gg\LL	.
.	48ff\	.
.	48een\JJJ	.
8B-\L 8BB-\	8dd\L	.
8A\ 8AA\	8cc\	.
8B-\ 8BB-\	8dd\	.
8d\J 8D\	8b-\J	.
=14	=14	=14
4c\ 4C\	16a/LL	.
.	16b-/	.
.	16bn/	.
.	16cc/JJ	.
8r	16cc/LL	.
.	16b-X/	.
8B-\L 8En\ 8C\	16a/	.
.	16g/JJ	.
8A\J 8F\	8f/	.
!LO:TX:a:t=Da Capo	!	!
!!LO:PB:g=original
=15||	=15||	=15||
*k[b-e-]	*k[b-e-]	*
*M3/4	*M3/4	*
*clefG2	*clefF4	*
!	!LO:TX:a:t=Trio	!
8f/L 8d/ 8B-/	(8F\L	.
8f/J 8d/ 8B-/	8D\J)	.
*rep	*	*
.	8qC/	.
8f/L 8d/ 8B-/	16BB-/LL	.
.	16AA/	.
8f/J 8d/ 8B-/	16BB-/	.
.	16C/JJ	.
*Xrep	*	*
*rep	*	*
.	8qE-/	.
8f/L 8d/ 8B-/	16D\LL	.
.	16C\	.
8f/J 8d/ 8B-/	16D\	.
.	16F\JJ	.
*Xrep	*	*
=16	=16	=16
8f/L 8c/ 8A/	(8E-\L	.
8f/J 8c/ 8A/	8C\J)	.
*	*clefG2	*
8f/L 8e-/ 8c/	16ff\LL	.
.	16een\	.
8f/J 8e-/ 8c/	16ff\	.
.	16gg\JJ	.
*rep	*	*
8f/L 8e-/ 8c/	16aa\LL	.
.	16bb-\	.
8f/J 8e-/ 8c/	16ccc\	.
.	16aa\JJ	.
*Xrep	*	*
=17	=17	=17
8f/L 8d/ 8B-/	(8bb-\L	.
8f/J 8d/ 8B-/	8ddd\J)	.
*rep	*	*
*	*clefF4	*
8f/L 8d/ 8B-/	16F\LL	.
.	16D\	.
8f/J 8d/ 8B-/	16C\	.
.	16BB-\JJ	.
*Xrep	*	*
*rep	*	*
8f/L 8d/ 8B-/	16AA\LL	.
.	16BB-\	.
8f/J 8d/ 8B-/	16D\	.
.	16F\JJ	.
*Xrep	*	*
=18	=18	=18
8f/L 8c/ 8A/	(8E-\L	.
8f/J 8c/ 8A/	8C\J)	.
*	*clefG2	*
8f/L 8e-/ 8c/	16ff\LL	.
.	16een\	.
8f/J 8e-/ 8c/	16ff\	.
.	16gg\JJ	.
8f/L 8e-/ 8c/	16aa\LL	.
.	16bb-\	.
8f/J 8e-/ 8c/	16ccc\	.
.	16aa\JJ	.
=19	=19	=19
!!linebreak:original
.	(32qqccc/LLL	.
.	32qqbb-/	.
.	32qqaa/JJJ	.
16d/LL	(8bb-\L)	.
16b-/	.	.
16f/	16ddd\Jk)	.
16b-/JJ	16r	.
.	(32qqaa/LLL	.
.	32qqgg/	.
.	32qqff#X/JJJ	.
16e-/LL	(8gg\L)	.
16b-/	.	.
16g/	16bb-'\Jk)	.
16b-/JJ	16r	.
.	(32qqff#/LLL	.
.	32qqee-/	.
.	32qqdd/JJJ	.
*clefF4	*	*
16E-\LL	(8ee-\L)	.
16c\	.	.
16G\	16gg'\Jk)	.
16c\JJ	16r	.
!!LO:LB:g=original
=20	=20	=20
4e-\ 4A\ 4F\	16ff\LL	.
.	16cc\	.
.	16ee-\	.
.	16cc\JJ	.
8r	16a\LL	.
.	16cc\	.
8e-\ 8A\ 8F\	16ee-\	.
.	16cc\JJ	.
4d\ 4B-\	4b-\	.
=21:|!|:	=21:|!|:	=21:|!|:
16F\LL	16a\LL	f
16c\	16cc\	.
16A\	16ff\	.
16c\JJ	16een\JJ	.
*rep	*	*
16F\LL	16ff\LL	.
16c\	16ee\	.
16A\	16dd\	.
16c\JJ	16cc\JJ	.
*Xrep	*	*
*rep	*	*
16F\LL	16b-/LL	.
16c\	16a/	.
16A\	16g/	.
16c\JJ	16f/JJ	.
*Xrep	*	*
=22	=22	=22
!	!LO:TX:a:t=P:mixed beam:problem	!
16G\LL	8en/L	.
16c\	.	.
16B-\	16bb-\L	.
16c\JJ	16aa\JJ	.
16En\LL	16bb-\LL	.
16c\	16aa\	.
16G\	16gg\	.
16c\JJ	16ff\JJ	.
16C\LL	16een\LL	.
16c\	16dd\	.
16E\	16cc\	.
16c\JJ	16b-\JJ	.
=23	=23	=23
16F\LL	16a\LL	.
16c\	16cc\	.
16A\	16ff\	.
16c\JJ	16aa\JJ	.
16A\LL	16ccc\LL	.
16f\	16bb-\	.
16c\	16aa\	.
16f\JJ	16gg\JJ	.
*rep	*	*
16A\LL	16ff\LL	.
16f\	16ee-\	.
16c\	16dd\	.
16f\JJ	16cc\JJ	.
*Xrep	*	*
=24-	=24	=24
*clefG2	*	*
8f/L 8d/ 8B-/	16dd\LL	.
.	16een\	.
8f/ 8d/ 8B-/	16ff\	.
.	16dd\JJ	.
8b-/ 8g/ 8c/	16ee\LL	.
.	16ff\	.
8b-/J 8g/ 8c/	16gg\	.
.	16ee\JJ	.
4a/ 4f/	4ff\	.
!LO:TX:a:t=Da Capo \nTrio	!	!
==	==	==
*-	*-	*-
!!!system-decoration: [s1,s2]
!!!EED: Leszek Kubiak
!!!EST: 2020-11-30
!!!ENC: Marcin Jachim
!!!END: 2020-06-10
